Catalina-dark/actions/24/draw-text.svg

<?xml version="1.0" encoding="UTF-8" standalone="no"?>
<svg
   xmlns:svg="http://www.w3.org/2000/svg"
   xmlns="http://www.w3.org/2000/svg"
   xmlns:xlink="http://www.w3.org/1999/xlink"
   xmlns:sodipodi="http://sodipodi.sourceforge.net/DTD/sodipodi-0.dtd"
   xmlns:inkscape="http://www.inkscape.org/namespaces/inkscape"
   sodipodi:docname="draw-text.svg"
   inkscape:version="1.1-dev (1:0.92.0+devel+202004260039+9758c7a)"
   id="svg6"
   version="1.1"
   viewBox="0 0 6.3499999 6.3500002"
   height="24"
   width="24">
  <defs
     id="defs2">
    <linearGradient
       id="linearGradient846"
       inkscape:collect="always">
      <stop
         id="stop842"
         offset="0"
         style="stop-color:#939393;stop-opacity:1" />
      <stop
         style="stop-color:#7e7e7e;stop-opacity:1"
         offset="0.058196"
         id="stop850" />
      <stop
         id="stop844"
         offset="1"
         style="stop-color:#5c5c5c;stop-opacity:1" />
    </linearGradient>
    <linearGradient
       gradientTransform="matrix(0.26458333,0,0,0.26458333,-141.02291,-165.62915)"
       gradientUnits="userSpaceOnUse"
       y2="647"
       x2="545"
       y1="628"
       x1="545"
       id="linearGradient848"
       xlink:href="#linearGradient846"
       inkscape:collect="always" />
  </defs>
  <sodipodi:namedview
     inkscape:window-maximized="1"
     inkscape:window-y="30"
     inkscape:window-x="0"
     inkscape:window-height="1024"
     inkscape:window-width="1920"
     units="px"
     showgrid="true"
     inkscape:current-layer="layer1"
     inkscape:document-units="mm"
     inkscape:cy="21.035667"
     inkscape:cx="11.978558"
     inkscape:zoom="11.2"
     inkscape:pageshadow="2"
     inkscape:pageopacity="0.0"
     borderopacity="1.0"
     bordercolor="#666666"
     pagecolor="#ffffff"
     id="base">
    <inkscape:grid
       id="grid835"
       type="xygrid" />
  </sodipodi:namedview>
  <g
     id="layer1"
     inkscape:groupmode="layer"
     inkscape:label="Layer 1">
    <path
       d="M 1.0583333,0.52917985 V 1.8520966 H 1.3229167 C 1.852086,1.3229272 1.8863363,1.2871027 2.1151162,1.0588625 2.3810357,0.79357275 2.6458254,0.79376585 2.9104167,1.0583333 v 3.96875 L 2.38125,5.2916667 V 5.55625 H 4.2333333 V 5.2916667 L 3.7041667,5.0270833 v -3.96875 c 0.2645807,-0.26458065 0.5293201,-0.26459915 0.790649,0 0.4177692,0.4230106 0.5322703,0.5291693 0.7968509,0.79375 H 5.55625 V 0.52916665 Z"
       style="fill:url(#linearGradient848);fill-opacity:1;stroke:none;stroke-width:0.03;stroke-linecap:butt;stroke-linejoin:miter;stroke-miterlimit:4;stroke-dasharray:none;stroke-opacity:1"
       id="path837" />
  </g>
</svg>

<svg width="24" height="24" version="1.1" viewBox="0 0 6.35 6.35" xmlns="http://www.w3.org/2000/svg">
<defs>
<linearGradient id="linearGradient848" x1="545" x2="545" y1="628" y2="647" gradientTransform="matrix(.26458 0 0 .26458 -141.02 -165.63)" gradientUnits="userSpaceOnUse"/>
</defs>
<path d="m1.0583 0.52918v1.3229h0.26458c0.52917-0.52917 0.56342-0.56499 0.7922-0.79323 0.26592-0.26529 0.53071-0.2651 0.7953-5.292e-4v3.9688l-0.52917 0.26458v0.26458h1.8521v-0.26458l-0.52917-0.26458v-3.9688c0.26458-0.26458 0.52932-0.2646 0.79065 0 0.41777 0.42301 0.53227 0.52917 0.79685 0.79375h0.26458v-1.3229z" fill="url(#linearGradient848)"/>
</svg>
